icons/1_Primary/Nash.svg

<svg xmlns="http://www.w3.org/2000/svg" width="1024" height="1024" fill="none">
   <g clip-path="url(#a)">
      <path fill="#9ABEFF" d="M512 1024c282.77 0 512-229.23 512-512S794.77 0 512 0 0 229.23 0 512s229.23 512 512 512Z"/>
      <path fill="#fff" d="M792 439.12v188.32h-62.89V468.07c0-28.17-2.22-32.48-12.14-30-8.75 2.16-8.94 15.3-9.46 35v154.37h-58.24V327.91l58.24-13.54v113c0 .79 0 2.26.6 2.26s.7-1.67.74-2.31C711 385.08 722.6 368.58 742.3 364c32.24-7.54 49.7 7.85 49.7 75.12Zm-150.21 93.21c0-46.44-6.71-60.75-49.43-69.15-28.09-3.95-29.07-6.1-29.07-19v-2.62c0-16.12 1.81-26.55 10.47-28.77 9-2.31 11.13 2.6 11.13 22.79v19.19h56.9V425c0-56.72-14.76-77.56-67.7-65.53-52.66 11.93-67.7 33.12-67.7 84v10.8c0 45.33 4.42 58.57 48.78 68.52 29.36 5.94 29.72 7.39 29.72 20.65v13.33c0 16.21-1.67 20.64-9.5 20.64-9.78 0-12.1-6.35-12.1-25.15v-18.58h-56.9v21.13c0 57.13 17.14 74.81 67.7 74.81 53.17 0 67.7-18.79 67.7-71.13v-26.16ZM433.16 392c-50 11.69-68.2 33.43-68.2 84.07v4.56h57.55V459.1c0-10.11 2.6-17.46 9.5-19 6.9-1.54 9.78 6.52 9.78 20.49v24.62c-29.07 9.42-80.58 0-80.58 64.93v22.4c0 41.22 11.51 57.13 40.87 57.13 22.77 0 34.66-7.92 38.41-32.94 0 0 .4-2.6.81-2.6.41 0 .5 1.93.5 2.6v30.8h57.57V450.58c-.01-54.58-18.49-69.72-66.21-58.58Zm8.64 174.33c0 17.2-4.15 21.1-12.78 21.1-8.06 0-14.91-4.23-14.91-21.1v-19.5c0-15.47 15-21.41 27.69-26v45.5Zm-87.61 61.13V479.83c0-41.45-6.32-67.83-33.6-61.35-21.18 5-32.63 19.13-36.18 53.05-.15 1.25-1.17 1.55-1.17 0v-42.28L232 441.16v186.36h51.23V505.86c0-21 3.89-29.7 10.8-31.67 7.83-2.21 10.79 8.69 10.79 26.53v126.77l49.37-.03Z"/>
   </g>
   <defs>
      <clipPath id="a">
         <path fill="#fff" d="M0 0h1024v1024H0z"/>
      </clipPath>
   </defs>
</svg>

<svg width="1024" height="1024" viewBox="0 0 1024 1024" fill="none" xmlns="http://www.w3.org/2000/svg">
<g clip-path="url(#clip0_2_2877)">
<path d="M512 1024C794.77 1024 1024 794.77 1024 512C1024 229.23 794.77 0 512 0C229.23 0 0 229.23 0 512C0 794.77 229.23 1024 512 1024Z" fill="#9ABEFF"/>
<path d="M792 439.12V627.44H729.11V468.07C729.11 439.9 726.89 435.59 716.97 438.07C708.22 440.23 708.03 453.37 707.51 473.07V627.44H649.27V327.91L707.51 314.37V427.37C707.51 428.16 707.51 429.63 708.11 429.63C708.71 429.63 708.81 427.96 708.85 427.32C711 385.08 722.6 368.58 742.3 364C774.54 356.46 792 371.85 792 439.12ZM641.79 532.33C641.79 485.89 635.08 471.58 592.36 463.18C564.27 459.23 563.29 457.08 563.29 444.18V441.56C563.29 425.44 565.1 415.01 573.76 412.79C582.76 410.48 584.89 415.39 584.89 435.58V454.77H641.79V425C641.79 368.28 627.03 347.44 574.09 359.47C521.43 371.4 506.39 392.59 506.39 443.47V454.27C506.39 499.6 510.81 512.84 555.17 522.79C584.53 528.73 584.89 530.18 584.89 543.44V556.77C584.89 572.98 583.22 577.41 575.39 577.41C565.61 577.41 563.29 571.06 563.29 552.26V533.68H506.39V554.81C506.39 611.94 523.53 629.62 574.09 629.62C627.26 629.62 641.79 610.83 641.79 558.49V532.33ZM433.16 392C383.16 403.69 364.96 425.43 364.96 476.07V480.63H422.51V459.1C422.51 448.99 425.11 441.64 432.01 440.1C438.91 438.56 441.79 446.62 441.79 460.59V485.21C412.72 494.63 361.21 485.21 361.21 550.14V572.54C361.21 613.76 372.72 629.67 402.08 629.67C424.85 629.67 436.74 621.75 440.49 596.73C440.49 596.73 440.89 594.13 441.3 594.13C441.71 594.13 441.8 596.06 441.8 596.73V627.53H499.37V450.58C499.36 396 480.88 380.86 433.16 392ZM441.8 566.33C441.8 583.53 437.65 587.43 429.02 587.43C420.96 587.43 414.11 583.2 414.11 566.33V546.83C414.11 531.36 429.11 525.42 441.8 520.83V566.33ZM354.19 627.46V479.83C354.19 438.38 347.87 412 320.59 418.48C299.41 423.48 287.96 437.61 284.41 471.53C284.26 472.78 283.24 473.08 283.24 471.53V429.25L232 441.16V627.52H283.23V505.86C283.23 484.86 287.12 476.16 294.03 474.19C301.86 471.98 304.82 482.88 304.82 500.72V627.49L354.19 627.46Z" fill="white"/>
</g>
<defs>
<clipPath id="clip0_2_2877">
<rect width="1024" height="1024" fill="white"/>
</clipPath>
</defs>
</svg>
